client/public/images/logo-2.svg

<svg height="53" viewBox="0 0 97 53" width="97" xmlns="http://www.w3.org/2000/svg"><g fill-rule="evenodd" transform="translate(.244898 .428571)"><path d="m0 0h5.71598083v17.6887397c0 .3359394.17119877.8395432.85724121.8395432h18.69029066c.6860424 0 .8572412-.5036038.8572412-.8395432v-17.6887397h5.7159808v39.1836735h-5.7159808v-19.143663c0-.2800513-.1711988-.8398486-.8572412-.8398486h-18.69029066c-.68604244 0-.85724121.5597973-.85724121.8398486v19.143663h-5.71598083z"/><path d="m44.5137654 21.3826324c0 .3424175.1723016.8557325.8602571.8557325h12.9532648c2.0629285 0 2.8084221-.684835 2.8084221-2.3966113v-.3987607c0-5.6486437-2.8084221-8.1594979-7.9668379-8.1594979-5.617157 0-8.6551061 3.2523437-8.6551061 9.0149191zm0 4.7353228c0 6.1056155 3.0379491 9.0149192 8.7698696 9.0149192 4.9292015 0 7.8520744-2.2250913 7.8520744-5.99075v-.7987666h4.9867396v.6272466c0 6.16227-4.9295142 10.2130691-12.838814 10.2130691-9.2279855 0-14.0999615-4.7356342-14.0999615-15.8610903 0-10.840627 5.3879427-15.97564442 13.9279726-15.97564442 7.6228602 0 13.0108029 3.70869292 13.0108029 12.72330072 0 .8557325-.0575381 1.8260192-.229527 2.7390288h-20.5188995c-.6879555 0-.8602571.5702808-.8602571.8554212z"/><path d="m87.5639202 9.79591837h7.9462839l-11.8348713 35.70106943c-1.5216746 4.6322198-2.0852691 5.9315836-5.0723512 5.9315836h-5.9732416v-4.5194192h8.6224129c.7323962 0 1.352258-.1692008 1.6907837-1.0731463l2.0283871-6.2138932c.0562672-.2256011 0-.3954184-.2816436-.3954184h-6.0301238l-10.0881277-29.43077593h5.5231039l9.4116912 28.24482903c.1125345.4518187.2819511.6210195.5635946.6210195h.9015054c.2256838 0 .3947929-.1692008.5073273-.5082189l6.0301238-18.2459531c.6198618-2.0338003.95808-2.994146.95808-4.0676006 0-.9600375-.3944854-1.5249649-1.5782493-1.5249649h-3.3246853z"/></g></svg>

<?xml version="1.0" encoding="UTF-8"?>
<svg width="97px" height="53px" viewBox="0 0 97 53" version="1.1" xmlns="http://www.w3.org/2000/svg" xmlns:xlink="http://www.w3.org/1999/xlink">
    <title>Group 19</title>
    <g id="Page-1" stroke="none" stroke-width="1" fill="none" fill-rule="evenodd">
        <g id="Group-19" transform="translate(0.244898, 0.428571)" fill="#000000">
            <path d="M1.42108547e-14,8.8817842e-14 L5.71598083,8.8817842e-14 L5.71598083,17.6887397 C5.71598083,18.0246791 5.8871796,18.5282829 6.57322204,18.5282829 L25.2635127,18.5282829 C25.9495551,18.5282829 26.1207539,18.0246791 26.1207539,17.6887397 L26.1207539,8.8817842e-14 L31.8367347,8.8817842e-14 L31.8367347,39.1836735 L26.1207539,39.1836735 L26.1207539,20.0400105 C26.1207539,19.7599592 25.9495551,19.2001619 25.2635127,19.2001619 L6.57322204,19.2001619 C5.8871796,19.2001619 5.71598083,19.7599592 5.71598083,20.0400105 L5.71598083,39.1836735 L1.42108547e-14,39.1836735 L1.42108547e-14,8.8817842e-14 Z" id="Fill-24"></path>
            <path d="M44.5137654,21.3826324 C44.5137654,21.7250499 44.686067,22.2383649 45.3740225,22.2383649 L58.3272873,22.2383649 C60.3902158,22.2383649 61.1357094,21.5535299 61.1357094,19.8417536 L61.1357094,19.4429929 C61.1357094,13.7943492 58.3272873,11.283495 53.1688715,11.283495 C47.5517145,11.283495 44.5137654,14.5358387 44.5137654,20.2984141 L44.5137654,21.3826324 Z M44.5137654,26.1179552 C44.5137654,32.2235707 47.5517145,35.1328744 53.283635,35.1328744 C58.2128365,35.1328744 61.1357094,32.9077831 61.1357094,29.1421244 L61.1357094,28.3433578 L66.122449,28.3433578 L66.122449,28.9706044 C66.122449,35.1328744 61.1929348,39.1836735 53.283635,39.1836735 C44.0556495,39.1836735 39.1836735,34.4480393 39.1836735,23.3225832 C39.1836735,12.4819562 44.5716162,7.34693878 53.1116461,7.34693878 C60.7345063,7.34693878 66.122449,11.0556317 66.122449,20.0702395 C66.122449,20.925972 66.0649109,21.8962587 65.892922,22.8092683 L45.3740225,22.8092683 C44.686067,22.8092683 44.5137654,23.3795491 44.5137654,23.6646895 L44.5137654,26.1179552 Z" id="Fill-26"></path>
            <path d="M87.5639202,9.79591837 L95.5102041,9.79591837 L83.6753328,45.4969878 C82.1536582,50.1292076 81.5900637,51.4285714 78.6029816,51.4285714 L72.62974,51.4285714 L72.62974,46.9091522 L81.2521529,46.9091522 C81.9845491,46.9091522 82.6044109,46.7399514 82.9429366,45.8360059 L84.9713237,39.6221127 C85.0275909,39.3965116 84.9713237,39.2266943 84.6896801,39.2266943 L78.6595563,39.2266943 L68.5714286,9.79591837 L74.0945325,9.79591837 L83.5062237,38.0407474 C83.6187582,38.4925661 83.7881748,38.6617669 84.0698183,38.6617669 L84.9713237,38.6617669 C85.1970075,38.6617669 85.3661166,38.4925661 85.478651,38.153548 L91.5087748,19.9075949 C92.1286366,17.8737946 92.4668548,16.9134489 92.4668548,15.8399943 C92.4668548,14.8799568 92.0723694,14.3150294 90.8886055,14.3150294 L87.5639202,14.3150294 L87.5639202,9.79591837 Z" id="Fill-28"></path>
        </g>
    </g>
</svg>
